X:33
T:RVW2/2/33 Green Bushes
C:Mr. and Mrs. Ratford, Ingrave, Essex, 15 April 1904
L:1/8
Q:1/4=90
M:3/4
I:linebreak $
K:C
"^(Editorial suggestion)  " D2 | G2 G2 (AG) | F2 G2 (Bc) | d2 (dc) (AG) |{/F} G4 (3(DEF) | 
w: As|I was a- *|wal- king one *|mor- ning * in *|May to * *|
G2 G2 (AG) |$ F2 G2 Bc | (de) (fd) (ef) | d4 (Bc) | d2 d2 g2 | d2 e2 f2 | (AB) c2 (AG) |$ 
w: hear the birds *|whis- tle and the|nigh- * tin- * gales *|sing I *|heard a young|dam- sel so|sweet- * ly sung *|
(F2 G3) (A/B/) | G3 B (A>G) | F2 G2 (Bc) | d2 dc (AB) | G4 |] 
w: she * down *|by the green *|bush- es where *|she thinks to meet *|me.|



